X:130
T:How Imperfect is Expression
M:C
K:C
g3g agfe| e2e2 fedc|\
(cd)(eg) g2ag| ga/g/ fe ec "tr"d2|\
g3g fedc| e3e fedc| 
ceeg gf/g/ af| edcB c4 ::\
d3d edd2| d/f/e/g/ "tr"fe "tr"d2c2| \
ceeg g2ag| ga/g/ fe "tr"e2d2|
g3g agfe| e3e fedc| \
ceeg gf/g/ af| e2d2 c4:|
